X: 107
T: Eskimo
C: words: Lydia Avery Coonley.
C: music: Jessie L. Gaynor.
N: Copyright, 1899, by A. Flanagan, Publisher.
Q: "With marked rhythm."
%R: air, march
N: This is version 1, for ABC software that doesn't understand voice overlays.
B: "The Everyday Song Book", 1927
F: http://www.library.pitt.edu/happybirthday/pdf/The_Everyday_Song_Book.pdf
Z: 2017 John Chambers <jc:trillian.mit.edu>
M: 4/8
L: 1/8
K: Dm
V: 1
V: 2 brace=2 staves=2
V: 3 clef=bass middle=d
%%scale 0.60
% - - - - - - - - - - - - - - - - - - - - - - - - - - - - -
V: 1
[| A3 A | d2 A2 | B2 G2 | A4 | A G F G | E2 F2 | D4- | D4 |
w: 1.~By the North Pole dwells, we know, Chil-ly lit-tle Es-ki-mo;_
w: 2.~Wrapped in fur-ry clothes you go,  Lit-tle bro-ther Es-ki-mo;_
w: 3.~Swift on show-shoes you can go,    Clev-er lit-tle Es-ki-mo;_
%
F E D E | F2 G2 | A4- | A4 | F E D E | F2 G2 | A4- | A4 |
w: In the fields of ice a-lone_   Stands his house of turf or stone,_
w: Up a-bove you ice-bergs rise,_ North-ern Lights are in the skies;_
w: When you ride so far a-way,_   Then the rein-deer draws your sleigh._
%
A3 A | d2 A2 | B2 G2 | A4 | A G F G | A2 =B2 | c4- | c4 |
w: Sheet of ice for win-dow-pane, Would not you and I com-plain?_
w: Win-ter is as dark as night,   But your stars are very-y bright._
w: So the snow is full of joy     For the North-ern girl and boy._
%
"^Chorus."d2 c d | A2 G2 | A4- | A4 | A2 G A | F2 D2 | F4- F4 |
w: Dear lit-tle Es-ki-mo,_ Leave all your ice and snow!_
%
F4 | d3 d | c2 F2 | A4 | (AG) F G | E2 F2 | D4- | D2z2 |]
w: Come here with us to play Al* thro' our sun-ny day!_
% - - - - - - - - - - - - - - - - - - - - - - - - - - - - -
V: 2
[| A2- [AF2D2]A | d2 [A2F2D2] | B2 [G2D2B,2] | A2- [A2F2D2] | GF [FD2]G | G2 [F2^C2G,2] | D2-[D2-A,2F,2] | D2-[D2A,2F,2] |
FE [DB,2]E | F2[G2D2B,2] | A2-[A2-F2C2A,2] | A2-[A2F2C2A,2] | FE [DA,2F,2]E | F2[G2D2B,2] | A2-[A2-F2^C2A,2] | A2-[A2F2^C2A,2] |
A2-[AF2D2]A | d2[A2F2D2] | B2[G2D2B,2] | A2-[A2F2D2A,2] | AG [FD2]G | A2[=B2F2D2] | c2-[c2-E2] | c2-[c2E2] |
d2[cA2F2]d | A2[G2E2B,2] | A2-[A2-F2C2A,2] | A2-[A2F2C2A,2] | A2[GF2C2]A | F2[D2B,2F,2] | F2-[F2-C2A,2] | F2-[F2C2A,2] |
F2-[F2D2B,2] | d2-[dF2D2]d | c2[F2C2] | A2-[A2D2] | AG [FD2]G | E2[F2^C2A,2] | D2-[D2A,2F,2] | [D2A,2F,2]z2 |]
% - - - - - - - - - - - - - - - - - - - - - - - - - - - - -
V: 3
[| {^G}[A4D4] | {^G}[A4D4] | {^G}[A4D4] | {^G}[A4D4] | {^G}[A4D4] | {^G}[A4D4] | {^G}[A4D4] | {^G}[A4D4] |
B2-[f2B2] | B2-[f2B2] | F2-[f2c2F2-] | F2-[f2c2F2-] |  d4 | B2-[f2B2] | A4 | F2 E2 |
{^G}[A4D4] | {^G}[A4D4] | {^G}[A4D4] | {^G}[A4D4] | d2-[a2d2] | G2-[g2G2] | c2-[g2c2] | c2-[b2c2] |
[c4F4] | [c4F4] | [c4F4] | [c4F4] | [c4F4] | [c4F4] | [c4F4] | [c4F4] |
B2-[f2B2] | B2-[f2B2] | F2-[a2f2F2] | D2-[a2f2D2] | A2-[a2A2] | A2-[g2A2] | d4 | [A2D2]z2 |]
% - - - - - - - - - - - - - - - - - - - - - - - - - - - - -

%%sep 1 1 500
%%sep 1 1 500

